src/assets/img/admin-favicon-dev.svg

<?xml version="1.0" encoding="UTF-8" standalone="no"?>
<svg
   width="100px"
   height="100px"
   viewBox="0 0 100 100"
   version="1.1"
   id="svg1"
   xmlns="http://www.w3.org/2000/svg"
   xmlns:svg="http://www.w3.org/2000/svg"
   xmlns:rdf="http://www.w3.org/1999/02/22-rdf-syntax-ns#"
   xmlns:cc="http://creativecommons.org/ns#"
   xmlns:dc="http://purl.org/dc/elements/1.1/">
  <defs
     id="defs1" />
  <title
     id="title1">Favicon / Admin GUI</title>
  <g
     id="Favicon-/-Admin-GUI"
     stroke="none"
     stroke-width="1"
     fill="none"
     fill-rule="evenodd">
    <rect
       fill="#19abff"
       x="0"
       y="0"
       width="100"
       height="100"
       id="rect1"
       ry="50"
       style="fill:#f4ea12;fill-opacity:1" />
    <g
       id="Logo-A-Copy"
       transform="translate(11.0115, 22.499)">
      <path
         d="M33.9155722,0 L75.5664426,34.0926484 L57.5808394,52.0859906 C56.5352421,53.1320378 54.839994,53.1320378 53.7943967,52.0859906 L38.6486256,36.9337024 C37.6030283,35.8876552 35.9077801,35.8876552 34.8621828,36.9337024 L19.7164118,52.0859906 C18.6708145,53.1320378 16.9755663,53.1320378 15.929969,52.0859906 L0.784197973,36.9337024 C-0.261399324,35.8876552 -0.261399324,34.1916776 0.784197973,33.1456304 L33.9155722,0 Z"
         id="A"
         fill="#FFFFFF" />
      <path
         d="M36.6547113,0.0842086476 C37.3165131,0.00953385681 38.0029292,0.153114784 38.5994544,0.52791012 L56.3307567,11.6684447 C56.5428556,11.2881572 56.8054336,10.9565241 57.1025601,10.6717498 C57.9318417,9.8769434 59.0567269,9.44766043 60.1879073,9.40472724 C61.3775785,9.35957408 62.5516325,9.74413119 63.3901331,10.4911547 C63.6212452,10.6970533 63.8300157,10.9301304 64.0091857,11.1905807 C64.9075022,10.6231069 65.8221513,10.3284956 66.6955886,10.2385333 C68.4576998,10.0570395 70.0921226,10.7098946 71.2344574,11.8327946 C72.4020319,12.9805049 73.0517939,14.6124385 72.8330104,16.341162 C72.7299245,17.1556981 72.433801,18.0039796 71.8808448,18.8322077 C73.972584,19.6658238 75.3664917,20.9601327 76.218636,22.4294419 C77.5821261,24.7804384 77.567528,27.6598865 76.5474922,30.1304433 C75.486016,32.7013698 73.3551319,34.774555 70.7365728,35.3836585 C68.5442727,35.8936099 65.9556798,35.4299856 63.2973503,33.1913094 L34.8577387,4.73946051 C34.3347548,4.21625157 34.0732135,3.53051509 34.0732135,2.84475332 C34.0732135,2.15899155 34.3347548,1.47325507 34.8577387,0.950046129 C35.3557961,0.451774421 35.99296,0.15887774 36.6547113,0.0842086476 Z"
         id="Lan"
         stroke="#FFFFFF"
         stroke-width="2.68"
         fill="#19ABFF"
         style="fill:#f4ea12;fill-opacity:1" />
      <path
         d="M66.5451704,23.1481042 C66.2198125,22.9718515 66.0989389,22.5652157 66.2751916,22.2398578 C66.4514443,21.9145 66.8580801,21.7936263 67.1834379,21.9698791 C70.3817684,23.7024772 69.5743137,28.2837507 65.9763621,28.8175222 C65.6103373,28.8718236 65.2695957,28.6191218 65.2152943,28.253097 C65.160993,27.8870722 65.4136948,27.5463306 65.7797195,27.4920292 C68.1038997,27.1472271 68.6114627,24.2674552 66.5451704,23.1481042 Z"
         id="Path-4"
         fill="#FFFFFF"
         fill-rule="nonzero" />
    </g>
  </g>
  <metadata
     id="metadata1">
    <rdf:RDF>
      <cc:Work
         rdf:about="">
        <dc:title>Favicon / Admin GUI</dc:title>
      </cc:Work>
    </rdf:RDF>
  </metadata>
</svg>

<svg xmlns="http://www.w3.org/2000/svg" width="100" height="100" version="1.1">
    <g fill="none" fill-rule="evenodd" stroke="none" stroke-width="1">
        <rect width="100" height="100" x="0" y="0" fill="#19abff" ry="50" style="fill:#f4ea12;fill-opacity:1"/>
        <g transform="translate(11.011 22.499)">
            <path fill="#FFF" d="m33.916 0 41.65 34.093-17.985 17.993a2.677 2.677 0 0 1-3.787 0L38.65 36.934a2.677 2.677 0 0 0-3.787 0L19.716 52.086a2.677 2.677 0 0 1-3.786 0L.784 36.934a2.68 2.68 0 0 1 0-3.788z"/>
            <path fill="#19ABFF" stroke="#FFF" stroke-width="2.68" d="M36.655.084a3 3 0 0 1 1.944.444l17.732 11.14c.212-.38.474-.711.772-.996.829-.795 1.954-1.224 3.085-1.267 1.19-.045 2.364.34 3.202 1.086q.348.31.62.7a6.2 6.2 0 0 1 2.686-.952 5.64 5.64 0 0 1 4.538 1.594c1.168 1.148 1.818 2.78 1.599 4.508a5.8 5.8 0 0 1-.952 2.491c2.092.834 3.485 2.128 4.338 3.597 1.363 2.351 1.349 5.23.328 7.701-1.061 2.571-3.192 4.645-5.81 5.254-2.193.51-4.781.046-7.44-2.193L34.857 4.74a2.67 2.67 0 0 1-.784-1.894c0-.686.262-1.372.785-1.895a3 3 0 0 1 1.797-.866Z" style="fill:#f4ea12;fill-opacity:1"/>
            <path fill="#FFF" fill-rule="nonzero" d="M66.545 23.148a.67.67 0 0 1 .638-1.178 3.63 3.63 0 0 1-1.207 6.848.67.67 0 1 1-.196-1.326c2.324-.345 2.831-3.225.765-4.344"/>
        </g>
    </g>
</svg>
